icons/1_Primary/Dropbox.svg

<svg xmlns="http://www.w3.org/2000/svg" width="1024" height="1024" fill="none">
   <g clip-path="url(#a)">
      <path fill="#728DBE" d="M512 1024c282.77 0 512-229.23 512-512S794.77 0 512 0 0 229.23 0 512s229.23 512 512 512Z"/>
      <path fill="#fff" d="M384 313.5 256 395l128 81.5L512 395l-128-81.5Zm256 0L512 395l128 81.5L768 395l-128-81.5ZM256 558.2l128 81.5 128-81.5-128-81.5-128 81.5Zm384-81.6-128 81.5 128 81.5 128-81.5-128-81.5ZM384 666.9l128 81.5 128-81.5-128-81.5-128 81.5Z"/>
   </g>
   <defs>
      <clipPath id="a">
         <path fill="#fff" d="M0 0h1024v1024H0z"/>
      </clipPath>
   </defs>
</svg>

<svg width="1024" height="1024" viewBox="0 0 1024 1024" fill="none" xmlns="http://www.w3.org/2000/svg">
<g clip-path="url(#clip0_2_2064)">
<path d="M512 1024C794.77 1024 1024 794.77 1024 512C1024 229.23 794.77 0 512 0C229.23 0 0 229.23 0 512C0 794.77 229.23 1024 512 1024Z" fill="#728DBE"/>
<path d="M384 313.5L256 395L384 476.5L512 395L384 313.5ZM640 313.5L512 395L640 476.5L768 395L640 313.5ZM256 558.2L384 639.7L512 558.2L384 476.7L256 558.2ZM640 476.6L512 558.1L640 639.6L768 558.1L640 476.6ZM384 666.9L512 748.4L640 666.9L512 585.4L384 666.9Z" fill="white"/>
</g>
<defs>
<clipPath id="clip0_2_2064">
<rect width="1024" height="1024" fill="white"/>
</clipPath>
</defs>
</svg>
